!!!OTL: Liebesnot (153), S. 334
!!!id: T0322
**kern
*clefG2
*k[]
*G:
{8g
=1
8g
4.g
=2yy
8g
=3
4g
4b
=4
4.g
8e
=5
4d}
4r
=6
{4.b
8a
=7
4b
4dd
=8
4.cc
8b
=9
4a}
4r
=10
{8g
8a
8a
8a
=11
4a
8a
8b
=12
4a
8g
8a
=13
8b
8b}
=14
{8b
8cc
=15
4b
8a
8g
=16
4a
8a
8b
=17
4a
8g
8a
=18
4b
8b
8cc
=19
4b
8a}
=20
{8g
=21
4a
4ee
=22
4.dd
8dd
=23
8dd
8cc
8cc
8cc
=24
4b}
4r
==
*-
!!!minrhy: 8
!!!meters: 2/4 ]  ZZ[5
!!!cut: Liebesnot (153), S. 334
!!!reg: Luxemburg
!!!trd: Singendes Volk, Esch-Alzette 1937, posth.
!!!rhy1:   X_.X  X_X_  X_.X  X_0_
!!!rhy2: X_.X  X_X_  X_.X  X_0_
!!!key: T0322  08  G 2/4 ]  ZZ[5
!!!mod: SECHSTONSKALA DUR ?]  AMBITUS[9
!!!kad: -52323
!!!akz: 111-5_3342_1223_32233_2553_
!!!fot: 'a__b__c__d__e__
!!!for: 'a__a__b__c__d__
!!!fok: '^d_^d_/__Sd_^a_
!! PHRAS[GEMISCHTTAKTIG]
!!!fkt: historische, Kriegs- und Soldatenlieder, Liebeslied
!!!bem: StraPen, fff Witry, 21.2.1933
!! THILL, Mathias:
!! PR[11] 2K[4] 2G[28] 3K[4] 3G[2] 4A[7] 4Ü[0] 5A[0] 6K[0] 6G[0]
!! 7K[0] 7G[0] 8A[0] MEHR[0] SI[46] ABS[46] SR[33] SP[13]
!! ST[14] 2k[7] 2g[24] 3k[4] 3g[7] 4d[2] 4ü[0] 5d[0] 6k[0] 6g[0]
!! 7k[0] 7g[0] 8d[0] mehr[0] si[43] dm[+3] sr[30] sp[13]
!! 1F[12] 2F[68] 3F[10] 4F[0] LF[0] 2P[8] 3P[2] 4P[0] TRI[0] DF[5] AB[50]
!! TF[0] U3K[0] U3[0] U4[0] U4Ü[0] U5[4] U6K[0] U6[0] U7K[0] U7[9]
!! N1[28] N2K[0] N2[34] N3K[0] N3[23] N4[2] N4Ü[0] N5[0] N6K[0] N6[0]
!!!n7k: 0] N7[0] O1[0] O2K[0] O2[0] O3K[0] O3[0] HÖ[0
